svg/mo.svg

<svg xmlns:svg="http://www.w3.org/2000/svg" xmlns="http://www.w3.org/2000/svg"
width="660" height="440" viewBox="0 0 2880 1920">
<title>Flag of Macau</title>
<defs id="defs4" />
<rect width="2880" height="1920" x="0" y="0" id="rect3348" style="fill:#00785e;fill-opacity:1;stroke:none;stroke-width:0;stroke-miterlimit:4;stroke-dasharray:none;stroke-opacity:1" />
<path d="M 1440,362 L 1416.3438,434.90625 L 1339.6562,434.90625 L 1401.6875,479.96875 L 1378,552.84375 L 1440,507.84375 L 1502,552.84375 L 1478.3125,479.96875 L 1540.3438,434.90625 L 1463.6562,434.90625 L 1440,362 z M 1137.4375,489.90625 L 1152.9688,540.625 L 1109.5,571.03125 L 1162.5312,571.96875 L 1178.0312,622.6875 L 1195.3125,572.53125 L 1248.3438,573.4375 L 1206,541.53125 L 1223.25,491.375 L 1179.7812,521.8125 L 1137.4375,489.90625 z M 1742.5625,489.90625 L 1700.2188,521.8125 L 1656.75,491.375 L 1674,541.53125 L 1631.6562,573.4375 L 1684.6875,572.53125 L 1701.9688,622.6875 L 1717.4688,571.96875 L 1770.5,571.03125 L 1727.0312,540.625 L 1742.5625,489.90625 z M 1036.9688,657.46875 L 1014.5625,705.53125 L 961.9375,699.0625 L 1000.7188,735.21875 L 978.3125,783.3125 L 1024.6875,757.59375 L 1063.4688,793.75 L 1053.375,741.6875 L 1099.7188,715.96875 L 1047.0938,709.53125 L 1036.9688,657.46875 z M 1843.0312,657.46875 L 1832.9062,709.53125 L 1780.2812,715.96875 L 1826.625,741.6875 L 1816.5312,793.75 L 1855.3125,757.59375 L 1901.6875,783.3125 L 1879.2812,735.21875 L 1918.0625,699.0625 L 1865.4375,705.53125 L 1843.0312,657.46875 z" id="path3370" style="fill:#fbd116;fill-opacity:1;fill-rule:evenodd;stroke:none;stroke-width:0;stroke-linecap:butt;stroke-linejoin:miter;stroke-miterlimit:4;stroke-dasharray:none;stroke-opacity:1" />
<path d="M 1440,614.40625 C 1371.1264,673.92514 1327.5,761.89769 1327.5,860 C 1327.5,926.72583 1347.674,988.75415 1382.25,1040.3438 C 1339.7879,985.49173 1314.5,916.68567 1314.5,842 C 1314.5,792.3906 1325.6628,745.37327 1345.5938,703.3125 C 1331.8287,688.76564 1321.3724,671.05436 1315.4688,651.375 C 1288.757,698.52013 1273.5,752.97967 1273.5,811 C 1273.5,883.17038 1297.1022,949.84574 1337,1003.75 C 1267.5168,930.90977 1169.5373,885.49999 1061,885.5 C 1055.1678,885.5 1049.3619,885.64686 1043.5938,885.90625 C 1054.5148,896.08524 1063.6821,908.1145 1070.5938,921.5 C 1178.5572,921.66462 1276.0238,966.78136 1345.3438,1039.0938 C 1279.141,983.7986 1193.9345,950.49999 1101,950.5 C 1049.0635,950.5 999.54759,960.89612 954.40625,979.71875 C 1000.7861,1102.2731 1119.2633,1189.5 1258,1189.5 C 1266.9834,1189.5 1275.8889,1189.0957 1284.6875,1188.375 C 1265.9665,1191.739 1246.6842,1193.5 1227,1193.5 C 1139.4677,1193.5 1060.0133,1158.7796 1001.625,1102.375 C 989.47083,1107.0515 976.43612,1109.9716 962.84375,1110.7812 C 1022.3139,1178.0476 1109.223,1220.5 1206,1220.5 C 1297.9236,1220.5 1380.9443,1182.2079 1440,1120.7188 C 1499.0557,1182.2079 1582.0765,1220.5 1674,1220.5 C 1770.7771,1220.5 1857.6861,1178.0476 1917.1562,1110.7812 C 1903.564,1109.9716 1890.5293,1107.0515 1878.375,1102.375 C 1819.9868,1158.7796 1740.5324,1193.5 1653,1193.5 C 1633.3159,1193.5 1614.0335,1191.739 1595.3125,1188.375 C 1604.111,1189.0957 1613.0167,1189.5 1622,1189.5 C 1760.7368,1189.5 1879.2139,1102.2731 1925.5938,979.71875 C 1880.4523,960.89612 1830.9366,950.5 1779,950.5 C 1686.0656,950.49999 1600.859,983.7986 1534.6562,1039.0938 C 1603.9762,966.78136 1701.4428,921.66462 1809.4062,921.5 C 1816.3179,908.1145 1825.4852,896.08524 1836.4062,885.90625 C 1830.6381,885.64686 1824.8323,885.5 1819,885.5 C 1710.4628,885.49999 1612.4833,930.90977 1543,1003.75 C 1582.8979,949.84574 1606.5,883.17038 1606.5,811 C 1606.5,752.97967 1591.243,698.52013 1564.5312,651.375 C 1558.6276,671.05436 1548.1713,688.76564 1534.4062,703.3125 C 1554.3372,745.37327 1565.5,792.3906 1565.5,842 C 1565.5,916.68567 1540.2122,985.49173 1497.75,1040.3438 C 1532.3261,988.75415 1552.5,926.72583 1552.5,860 C 1552.5,761.89769 1508.8736,673.92514 1440,614.40625 z M 1440,1155.7188 C 1381.743,1211.3388 1302.8425,1245.5 1216,1245.5 L 963.46875,1245.5 C 970.9134,1256.4404 978.71454,1267.116 986.875,1277.5 L 1231,1277.5 C 1310.6028,1277.5 1383.5242,1248.7803 1440,1201.1562 C 1496.4758,1248.7803 1569.3973,1277.5 1649,1277.5 L 1893.125,1277.5 C 1901.2856,1267.116 1909.0866,1256.4404 1916.5312,1245.5 L 1664,1245.5 C 1577.1576,1245.5 1498.2571,1211.3388 1440,1155.7188 z M 1014.875,1310.5 C 1019.8401,1315.9271 1024.9258,1321.2637 1030.0938,1326.5 L 1849.9062,1326.5 C 1855.0741,1321.2637 1860.1599,1315.9271 1865.125,1310.5 L 1014.875,1310.5 z M 1065.4688,1359.5 C 1075.6011,1368.1837 1086.0264,1376.5259 1096.75,1384.5 L 1440,1384.5 L 1783.25,1384.5 C 1793.9737,1376.5259 1804.3989,1368.1837 1814.5312,1359.5 L 1440,1359.5 L 1065.4688,1359.5 z M 1133.2188,1409.5 C 1151.7948,1421.22 1171.0739,1431.9252 1191,1441.5 L 1440,1441.5 L 1689,1441.5 C 1708.9262,1431.9252 1728.2052,1421.22 1746.7812,1409.5 L 1440,1409.5 L 1133.2188,1409.5 z M 1227.5625,1457.5 C 1293.3097,1483.6288 1364.9803,1498 1440,1498 C 1515.0197,1498 1586.6902,1483.6288 1652.4375,1457.5 L 1440,1457.5 L 1227.5625,1457.5 z" id="path3169" style="fill:#ffffff;fill-opacity:1;fill-rule:evenodd;stroke:none;stroke-width:0;stroke-linecap:butt;stroke-linejoin:miter;stroke-miterlimit:4;stroke-dasharray:none;stroke-opacity:1" />
</svg>

<?xml version="1.0" encoding="UTF-8"?>
<svg width="660" height="440" viewBox="0 0 2880 1920" xmlns="http://www.w3.org/2000/svg">
  <title>Flag of Macau</title>
  <rect width="2880" height="1920" fill="#00785e"/>
  <path d="m1440 362-23.656 72.906h-76.688l62.031 45.062-23.688 72.875 62-45 62 45-23.688-72.875 62.031-45.062h-76.688l-23.656-72.906zm-302.56 127.91 15.531 50.719-43.469 30.406 53.031 0.9375 15.5 50.719 17.281-50.156 53.031 0.90625-42.344-31.906 17.25-50.156-43.469 30.438-42.344-31.906zm605.12 0-42.344 31.906-43.469-30.438 17.25 50.156-42.344 31.906 53.031-0.90625 17.281 50.156 15.5-50.719 53.031-0.9375-43.469-30.406 15.531-50.719zm-705.59 167.56-22.406 48.062-52.625-6.4688 38.781 36.156-22.406 48.094 46.375-25.719 38.781 36.156-10.094-52.062 46.344-25.719-52.625-6.4375-10.125-52.062zm806.06 0-10.125 52.062-52.625 6.4375 46.344 25.719-10.094 52.062 38.781-36.156 46.375 25.719-22.406-48.094 38.781-36.156-52.625 6.4688-22.406-48.062z" fill="#fbd116" fill-rule="evenodd"/>
  <path d="m1440 614.41c-68.874 59.519-112.5 147.49-112.5 245.59 0 66.726 20.174 128.75 54.75 180.34-42.462-54.852-67.75-123.66-67.75-198.34 0-49.609 11.163-96.627 31.094-138.69-13.765-14.547-24.221-32.258-30.125-51.938-26.712 47.145-41.969 101.6-41.969 159.62 0 72.17 23.602 138.85 63.5 192.75-69.483-72.84-167.46-118.25-276-118.25-5.8322 0-11.638 0.14686-17.406 0.40625 10.921 10.179 20.088 22.208 27 35.594 107.96 0.16462 205.43 45.281 274.75 117.59-66.203-55.295-151.41-88.594-244.34-88.594-51.936 0-101.45 10.396-146.59 29.219 46.38 122.55 164.86 209.78 303.59 209.78 8.9834 0 17.889-0.4043 26.688-1.125-18.721 3.364-38.003 5.125-57.688 5.125-87.532 0-166.99-34.72-225.38-91.125-12.154 4.6765-25.189 7.5966-38.781 8.4062 59.47 67.266 146.38 109.72 243.16 109.72 91.924 0 174.94-38.292 234-99.781 59.056 61.489 142.08 99.781 234 99.781 96.777 0 183.69-42.452 243.16-109.72-13.592-0.8096-26.627-3.7297-38.781-8.4062-58.388 56.405-137.84 91.125-225.38 91.125-19.684 0-38.966-1.761-57.688-5.125 8.7985 0.7207 17.704 1.125 26.688 1.125 138.74 0 257.21-87.227 303.59-209.78-45.142-18.823-94.657-29.219-146.59-29.219-92.934-1e-5 -178.14 33.299-244.34 88.594 69.32-72.312 166.79-117.43 274.75-117.59 6.9117-13.386 16.079-25.415 27-35.594-5.7681-0.25939-11.574-0.40625-17.406-0.40625-108.54-1e-5 -206.52 45.41-276 118.25 39.898-53.904 63.5-120.58 63.5-192.75 0-58.02-15.257-112.48-41.969-159.62-5.9036 19.679-16.36 37.391-30.125 51.938 19.931 42.061 31.094 89.078 31.094 138.69 0 74.686-25.288 143.49-67.75 198.34 34.576-51.59 54.75-113.62 54.75-180.34 0-98.102-43.626-186.07-112.5-245.59zm0 541.31c-58.257 55.62-137.16 89.781-224 89.781h-252.53c7.4446 10.94 15.246 21.616 23.406 32h244.12c79.603 0 152.52-28.72 209-76.344 56.476 47.624 129.4 76.344 209 76.344h244.12c8.1606-10.384 15.962-21.06 23.406-32h-252.53c-86.842 0-165.74-34.161-224-89.781zm-425.12 154.78c4.9651 5.4271 10.051 10.764 15.219 16h819.81c5.1679-5.2363 10.254-10.573 15.219-16h-850.25zm50.594 49c10.132 8.6837 20.558 17.026 31.281 25h686.5c10.724-7.9741 21.149-16.316 31.281-25h-749.06zm67.75 50c18.576 11.72 37.855 22.425 57.781 32h498c19.926-9.5748 39.205-20.28 57.781-32h-613.56zm94.344 48c65.747 26.129 137.42 40.5 212.44 40.5s146.69-14.371 212.44-40.5h-424.88z" fill="#fff" fill-rule="evenodd"/>
</svg>
